X: 107
T: An Elk Am I
C: Teton Sioux band 1911-1914
N: Derived from sioux107.krn
O: South Dakota, U.S.A.
N: Teton Sioux Music by Frances Densmore, 1918
Z: transcribed to **kern format by Craig Sapp
L: 1/4
M: 3/4
Q: 1/4=58
K: F clef=bass
%%linebreak <none>
C [I:setbarnb 1]| 
FF/< C/C ||  
[M:2/4]D/< C/C | 
C2- ||  
[M:3/4]C2C | 
FF/< C/C ||  
[M:2/4]D/< C/C | 
C2- | 
C/ A,/A, | 
A,A, | 
A,/ G,/G, | 
A,/ G,/G, | 
F,F, | 
F,/ C,/C,- | 
C,F, | 
F,/ C,/C, | 
D,/ C,/C, | 
C,2- | 
C,2 | 
C,2- | 
C,C, | 
C,2- | 
C,2- | 
C,C ||  
[M:3/4]F(F/< C/)C ||  
[M:2/4](D/< C/)C | 
(C2 | 
C/ A,/)A, | 
A,A, | 
(A,/ G,/)G, | 
(A,/ G,/)G, | 
F,2 | 
(F,/ C,/)C,- | 
C,F, | 
F,/ C,/C, | 
D,/ C,/C, | 
C,2- | 
C,2 | 
C,2- | 
C,C, | 
C,2 | 
C,z |]  



